X:248
T:Major Montgomery’s Quick Step. RH.248
R:Scots Measure
S:Rev.R.Harrison’s MS,c1815,Cumbria
O:England
A:Temple Sowerby,Cumbria
Z:vmp.Simon Wilson. Review PJH, 2008.
M:C
L:1/8
Q:2/4=90
K:D
F/E/|D3F A>BAF|A2d2d3A|B>cd>e d/e/f ed|e2E2E3F|!
D3F A>BAF|A2d2d3A|Bcde fgef|d2D2D3:|!
|:d/e/|fedB AdBA|B2d2d3F|G3B AFdF|E2e2e2de|!
fedf edce|dcBA BAGF|EFGE AGFE|D2d2d2:|

